app/dist/common/images/swk.svg

<svg height="18" viewBox="0 0 18 18" width="18" xmlns="http://www.w3.org/2000/svg"><path d="m0 0h18v18h-18z" fill="#f0f3fa"/><path d="m8 8.51h-5a6 6 0 0 0 1.57 1.49h3.43z" fill="#63709a"/><path d="m8 13.18v-4.67c.51.19 1.24 1.21 1.53 1.7v4.79a5.97 5.97 0 0 1 -1.53-1.82z" fill="#233f71"/><path d="m10 9.5h5a6.22 6.22 0 0 0 -1.61-1.5h-3.39z" fill="#63709a"/><path d="m10 4.82v4.68c-.5-.19-1.2-1.22-1.49-1.7v-4.8a5.86 5.86 0 0 1 1.49 1.82z" fill="#233f71"/></svg>

<!-- by TradingView --><svg width="18" height="18" viewBox="0 0 18 18" xmlns="http://www.w3.org/2000/svg"><path fill="#F0F3FA" d="M0 0h18v18H0z"/><path d="M8 8.51H3A6 6 0 0 0 4.57 10H8V8.51Z" fill="#63709A"/><path d="M8 13.18V8.51c.51.19 1.24 1.21 1.53 1.7V15A5.97 5.97 0 0 1 8 13.18Z" fill="#233F71"/><path d="M10 9.5h5A6.22 6.22 0 0 0 13.39 8H10v1.5Z" fill="#63709A"/><path d="M10 4.82V9.5c-.5-.19-1.2-1.22-1.49-1.7V3A5.86 5.86 0 0 1 10 4.82Z" fill="#233F71"/></svg>
